X:85
T:Spider 6/8
M:6/8
L:1/8
K:D
A|:f2e f2g|a2f d2A|(c3 B2)c|B3-B2 B|e2^d e2f|g2e c2A|B3 F2B|
A3 ABc|d2c d2f|a2f g2f|e3 B3|B3-B2 B|e2^d e2f|g2e c2A|e3 d2c|
d3-d2||A|f3- f2g|a3- a2d|e3 B3|B3- B2B|e2^d e2f|g2e c2A|(B3 F2)B|
A3 ABc|d2c d2f|a2f g2f|e3 B3|B3- B2B|e2^d e2f|g2e c2A|e3 d2c|Ld z2 z2:|
